newicons/emoji_ball_of_yarn.svg

<?xml version="1.0" encoding="UTF-8" standalone="no"?>
<svg
   version="1.2"
   viewBox="0 0 48 48"
   id="svg10"
   xmlns="http://www.w3.org/2000/svg"
   xmlns:svg="http://www.w3.org/2000/svg">
  <defs
     id="defs1" />
  <path
     d="m 28.463823,12.417844 a 14.377083,14.374411 0 0 1 -8.52208,2.780804 14.376953,14.374281 0 0 1 -8.527994,-2.785026"
     fill="none"
     stroke="#ffffff"
     stroke-linecap="round"
     stroke-linejoin="round"
     stroke-width="0.974671"
     id="path1"
     style="stroke-width:1;stroke-dasharray:none" />
  <path
     d="m 30.293385,14.136419 c -2.145514,2.897754 -6.320354,5.432637 -10.351512,5.432637 A 13.803274,13.800709 0 0 1 9.4079494,14.176962"
     fill="none"
     stroke="#ffffff"
     stroke-linecap="round"
     stroke-linejoin="round"
     stroke-width="0.974671"
     id="path2"
     style="stroke-width:1;stroke-dasharray:none" />
  <path
     d="M 31.861647,16.082202 C 30.026366,20.296613 25.029088,23.93966 19.941873,23.93966 A 13.802624,13.800059 0 0 1 7.9436626,16.345598"
     fill="none"
     stroke="#ffffff"
     stroke-linecap="round"
     stroke-linejoin="round"
     stroke-width="0.974671"
     id="path3"
     style="stroke-width:1;stroke-dasharray:none" />
  <path
     d="m 33.214682,18.531192 c -1.701544,5.315298 -7.330208,9.779006 -13.272809,9.779006 A 14.531095,14.528395 0 0 1 6.5841301,18.684591"
     fill="none"
     stroke="#ffffff"
     stroke-linecap="round"
     stroke-linejoin="round"
     stroke-width="0.974671"
     id="path4"
     style="stroke-width:1;stroke-dasharray:none" />
  <path
     d="M 34.0778,21.212263 A 14.447007,14.444322 0 0 1 19.941873,32.680736 14.713181,14.710446 0 0 1 5.689364,21.643093"
     fill="none"
     stroke="#ffffff"
     stroke-linecap="round"
     stroke-linejoin="round"
     stroke-width="0.974671"
     id="path5"
     style="stroke-width:1;stroke-dasharray:none" />
  <path
     d="m 29.258189,35.129076 c 0.855516,0.614117 2.425922,2.361799 4.306886,2.387917 1.880965,0.02612 3.634886,-2.047008 4.586253,-1.513003 1.693811,0.95067 2.437944,2.422287 4.348672,2.452435"
     fill="none"
     stroke="#ffffff"
     stroke-linecap="round"
     stroke-linejoin="round"
     stroke-width="0.974671"
     id="path6"
     style="stroke-width:1;stroke-dasharray:none" />
  <path
     d="M 24.498753,37.645313 A 14.75646,14.753718 0 0 1 15.337554,23.987088 14.447007,14.444322 0 0 1 24.512269,10.538334"
     fill="none"
     stroke="#ffffff"
     stroke-linecap="round"
     stroke-linejoin="round"
     stroke-width="0.974671"
     id="path7"
     style="stroke-width:1;stroke-dasharray:none" />
  <path
     d="m 26.932278,11.644548 a 14.441353,14.438669 0 0 0 -7.262169,12.34254 14.228465,14.225821 0 0 0 7.325073,12.413881"
     fill="none"
     stroke="#ffffff"
     stroke-linecap="round"
     stroke-linejoin="round"
     stroke-width="0.974671"
     id="path8"
     style="stroke-width:1;stroke-dasharray:none" />
  <path
     d="m 28.891224,12.943598 a 14.898256,14.895487 0 0 0 -4.88856,11.04349 c 0,4.48567 1.875051,8.715349 5.255525,11.141988"
     fill="none"
     stroke="#ffffff"
     stroke-linecap="round"
     stroke-linejoin="round"
     stroke-width="0.974671"
     id="path9"
     style="stroke-width:1;stroke-dasharray:none" />
  <path
     d="m 5.5000003,23.987088 a 14.441873,14.439188 0 1 0 28.8837447,0 14.441873,14.439188 0 1 0 -28.8837447,0"
     fill="none"
     stroke="#ffffff"
     stroke-linecap="round"
     stroke-linejoin="round"
     stroke-width="0.974671"
     id="path10"
     style="stroke-width:1;stroke-dasharray:none" />
</svg>

<?xml version="1.0" encoding="UTF-8"?><svg id="b" xmlns="http://www.w3.org/2000/svg" viewBox="0 0 48 48"><defs><style>.m{fill:none;stroke:#fff;stroke-linecap:round;stroke-linejoin:round;}</style></defs><path id="c" class="m" d="m28.4638,12.4167c-2.4717,1.8113-5.4576,2.7856-8.5221,2.7808-3.067.0049-6.0552-.971-8.528-2.785"/><path id="d" class="m" d="m30.2934,14.1352c-2.1455,2.8978-6.3204,5.4326-10.3515,5.4326-4.1429-.1249-8.0104-2.1046-10.5339-5.3921"/><path id="e" class="m" d="m31.8616,16.081c-1.8353,4.2144-6.8326,7.8575-11.9198,7.8575-5.095-.1226-9.7078-3.0422-11.9982-7.5941"/><path id="f" class="m" d="m33.2147,18.53c-1.7015,5.3153-7.3302,9.779-13.2728,9.779-6.0166-.1334-11.3284-3.9611-13.3577-9.6256"/><path id="g" class="m" d="m34.0778,21.2111c-1.4074,6.6835-7.3046,11.4679-14.1359,11.4685-6.713.0024-12.5765-4.5384-14.2525-11.0376"/><path id="h" class="m" d="m29.2582,35.1279c.8555.6141,2.4259,2.3618,4.3069,2.3879,1.881.0261,3.6349-2.047,4.5863-1.513,1.6938.9507,2.4379,2.4223,4.3487,2.4524"/><path id="i" class="m" d="m24.4988,37.6441c-5.5437-2.2712-9.1637-7.6682-9.1612-13.6582-.0003-5.9431,3.6404-11.2799,9.1747-13.4488"/><path id="j" class="m" d="m26.9323,11.6434c-4.4345,2.5397-7.1962,7.2334-7.2622,12.3425.0092,5.16,2.8123,9.9104,7.3251,12.4139"/><path id="k" class="m" d="m28.8912,12.9424c-3.1159,2.826-4.8916,6.8374-4.8886,11.0435,0,4.4857,1.8751,8.7154,5.2555,11.142"/><path id="l" class="m" d="m5.5,23.9859c0,7.9745,6.4658,14.4392,14.4419,14.4392s14.4419-6.4646,14.4419-14.4392c.0011-7.9745-6.4639-14.4401-14.4399-14.4412-7.976-.0011-14.4428,6.4627-14.4438,14.4372v.0039"/></svg>
